_includes/sprite.svg

<svg xmlns="http://www.w3.org/2000/svg" style="display:none">
<symbol id='icon-euro' viewBox='0 0 1024 1024'><path class="path1" d="M480 64c-265.096 0-480 214.904-480 480s214.904 480 480 480c265.098 0 480-214.902 480-480s-214.902-480-480-480zM480 928c-212.078 0-384-171.922-384-384s171.922-384 384-384c212.076 0 384 171.922 384 384s-171.924 384-384 384z"></path>
<path class="path2" d="M670.824 644.34c-15.27-8.884-34.862-3.708-43.75 11.57-17.256 29.662-49.088 48.090-83.074 48.090h-128c-41.716 0-77.286-26.754-90.496-64h154.496c17.672 0 32-14.326 32-32s-14.328-32-32-32h-160v-64h160c17.672 0 32-14.328 32-32s-14.328-32-32-32h-154.496c13.21-37.246 48.78-64 90.496-64h128c33.986 0 65.818 18.426 83.074 48.090 8.888 15.276 28.478 20.456 43.752 11.568 15.276-8.888 20.456-28.476 11.568-43.752-28.672-49.288-81.702-79.906-138.394-79.906h-128c-77.268 0-141.914 55.056-156.78 128h-35.22c-17.672 0-32 14.328-32 32s14.328 32 32 32h32v64h-32c-17.672 0-32 14.326-32 32s14.328 32 32 32h35.22c14.866 72.944 79.512 128 156.78 128h128c56.692 0 109.72-30.62 138.394-79.91 8.888-15.276 3.708-34.864-11.57-43.75z"></path></symbol>
<symbol id='icon-flag' viewBox='0 0 1024 1024'><path class="path1" d="M0 0h128v1024h-128v-1024z"></path>
<path class="path2" d="M832 643.002c82.624 0 154.57-19.984 192-49.5v-512c-37.43 29.518-109.376 49.502-192 49.502s-154.57-19.984-192-49.502v512c37.43 29.516 109.376 49.5 192 49.5z"></path>
<path class="path3" d="M608 32.528c-46.906-19.94-115.52-32.528-192-32.528-96.396 0-180.334 19.984-224 49.502v512c43.666-29.518 127.604-49.502 224-49.502 76.48 0 145.094 12.588 192 32.528v-512z"></path></symbol>
<symbol id='icon-info' viewBox='0 0 1024 1024'><path class="path1" d="M512 96c-111.118 0-215.584 43.272-294.156 121.844s-121.844 183.038-121.844 294.156c0 111.118 43.272 215.584 121.844 294.156s183.038 121.844 294.156 121.844c111.118 0 215.584-43.272 294.156-121.844s121.844-183.038 121.844-294.156c0-111.118-43.272-215.584-121.844-294.156s-183.038-121.844-294.156-121.844zM512 0v0c282.77 0 512 229.23 512 512s-229.23 512-512 512c-282.77 0-512-229.23-512-512s229.23-512 512-512zM448 704h128v128h-128zM448 192h128v384h-128z"></path></symbol>
<symbol id='icon-pencil' viewBox='0 0 1024 1024'><path class="path1" d="M864 0c88.364 0 160 71.634 160 160 0 36.020-11.91 69.258-32 96l-64 64-224-224 64-64c26.742-20.090 59.978-32 96-32zM64 736l-64 288 288-64 592-592-224-224-592 592zM715.578 363.578l-448 448-55.156-55.156 448-448 55.156 55.156z"></path></symbol>
<symbol id='icon-pencil2' viewBox='0 0 1024 1024'><path class="path1" d="M384 640l128-64 448-448-64-64-448 448-64 128zM289.3 867.098c-31.632-66.728-65.666-100.762-132.396-132.394l99.096-272.792 128-77.912 384-384h-192l-384 384-192 640 640-192 384-384v-192l-384 384-77.912 128z"></path></symbol>
<symbol id='icon-pin' viewBox='0 0 1024 1024'><path class="path1" d="M544 0l-96 96 96 96-224 256h-224l176 176-272 360.616v39.384h39.384l360.616-272 176 176v-224l256-224 96 96 96-96-480-480zM448 544l-64-64 224-224 64 64-224 224z"></path></symbol>
<symbol id='icon-quote' viewBox='0 0 1024 1024'><path class="path1" d="M800 640c-123.712 0-224-100.29-224-224 0-123.712 100.288-224 224-224s224 100.288 224 224l1 32c0 247.424-200.576 448-448 448v-128c85.474 0 165.834-33.286 226.274-93.726 11.634-11.636 22.252-24.016 31.83-37.020-11.438 1.8-23.16 2.746-35.104 2.746zM224 640c-123.71 0-224-100.29-224-224 0-123.712 100.29-224 224-224s224 100.288 224 224l1 32c0 247.424-200.576 448-448 448v-128c85.474 0 165.834-33.286 226.274-93.726 11.636-11.636 22.254-24.016 31.832-37.020-11.44 1.8-23.16 2.746-35.106 2.746z"></path></symbol>
<symbol id='icon-settings' viewBox='0 0 1024 1024'><path class="path1" d="M933.79 610.25c-53.726-93.054-21.416-212.304 72.152-266.488l-100.626-174.292c-28.75 16.854-62.176 26.518-97.846 26.518-107.536 0-194.708-87.746-194.708-195.99h-201.258c0.266 33.41-8.074 67.282-25.958 98.252-53.724 93.056-173.156 124.702-266.862 70.758l-100.624 174.292c28.97 16.472 54.050 40.588 71.886 71.478 53.638 92.908 21.512 211.92-71.708 266.224l100.626 174.292c28.65-16.696 61.916-26.254 97.4-26.254 107.196 0 194.144 87.192 194.7 194.958h201.254c-0.086-33.074 8.272-66.57 25.966-97.218 53.636-92.906 172.776-124.594 266.414-71.012l100.626-174.29c-28.78-16.466-53.692-40.498-71.434-71.228zM512 719.332c-114.508 0-207.336-92.824-207.336-207.334 0-114.508 92.826-207.334 207.336-207.334 114.508 0 207.332 92.826 207.332 207.334-0.002 114.51-92.824 207.334-207.332 207.334z"></path></symbol>
<symbol id='icon-twitter' viewBox='0 0 1024 1024'><path class="path1" d="M1024 226.4c-37.6 16.8-78.2 28-120.6 33 43.4-26 76.6-67.2 92.4-116.2-40.6 24-85.6 41.6-133.4 51-38.4-40.8-93-66.2-153.4-66.2-116 0-210 94-210 210 0 16.4 1.8 32.4 5.4 47.8-174.6-8.8-329.4-92.4-433-219.6-18 31-28.4 67.2-28.4 105.6 0 72.8 37 137.2 93.4 174.8-34.4-1-66.8-10.6-95.2-26.2 0 0.8 0 1.8 0 2.6 0 101.8 72.4 186.8 168.6 206-17.6 4.8-36.2 7.4-55.4 7.4-13.6 0-26.6-1.4-39.6-3.8 26.8 83.4 104.4 144.2 196.2 146-72 56.4-162.4 90-261 90-17 0-33.6-1-50.2-3 93.2 59.8 203.6 94.4 322.2 94.4 386.4 0 597.8-320.2 597.8-597.8 0-9.2-0.2-18.2-0.6-27.2 41-29.4 76.6-66.4 104.8-108.6z"></path></symbol>
<symbol id='icon-up' viewBox='0 0 1024 1024'><path class="path1" d="M877.254 402.746l-320-320c-24.992-24.994-65.514-24.994-90.508 0l-320 320c-24.994 24.994-24.994 65.516 0 90.51 24.994 24.996 65.516 24.996 90.51 0l210.744-210.746v613.49c0 35.346 28.654 64 64 64s64-28.654 64-64v-613.49l210.746 210.746c12.496 12.496 28.876 18.744 45.254 18.744s32.758-6.248 45.254-18.746c24.994-24.994 24.994-65.514 0-90.508z"></path></symbol>
</svg>

<svg xmlns="http://www.w3.org/2000/svg" style="display:none">
<symbol id='icon-euro' viewBox='0 0 1024 1024'><path class="path1" d="M480 64C214.904 64 0 278.904 0 544s214.904 480 480 480c265.098 0 480-214.902 480-480S745.098 64 480 64zm0 864C267.922 928 96 756.078 96 544s171.922-384 384-384c212.076 0 384 171.922 384 384S692.076 928 480 928z"/><path class="path2" d="M670.824 644.34c-15.27-8.884-34.862-3.708-43.75 11.57C609.818 685.572 577.986 704 544 704H416c-41.716 0-77.286-26.754-90.496-64H480c17.672 0 32-14.326 32-32s-14.328-32-32-32H320v-64h160c17.672 0 32-14.328 32-32s-14.328-32-32-32H325.504c13.21-37.246 48.78-64 90.496-64h128c33.986 0 65.818 18.426 83.074 48.09 8.888 15.276 28.478 20.456 43.752 11.568 15.276-8.888 20.456-28.476 11.568-43.752C653.722 350.618 600.692 320 544 320H416c-77.268 0-141.914 55.056-156.78 128H224c-17.672 0-32 14.328-32 32s14.328 32 32 32h32v64h-32c-17.672 0-32 14.326-32 32s14.328 32 32 32h35.22c14.866 72.944 79.512 128 156.78 128h128c56.692 0 109.72-30.62 138.394-79.91 8.888-15.276 3.708-34.864-11.57-43.75z"/></symbol>
<symbol id='icon-flag' viewBox='0 0 1024 1024'><path class="path1" d="M0 0h128v1024H0V0z"/><path class="path2" d="M832 643.002c82.624 0 154.57-19.984 192-49.5v-512c-37.43 29.518-109.376 49.502-192 49.502S677.43 111.02 640 81.502v512c37.43 29.516 109.376 49.5 192 49.5z"/><path class="path3" d="M608 32.528C561.094 12.588 492.48 0 416 0c-96.396 0-180.334 19.984-224 49.502v512C235.666 531.984 319.604 512 416 512c76.48 0 145.094 12.588 192 32.528v-512z"/></symbol>
<symbol id='icon-info' viewBox='0 0 1024 1024'><path class="path1" d="M512 96c-111.118 0-215.584 43.272-294.156 121.844S96 400.882 96 512s43.272 215.584 121.844 294.156S400.882 928 512 928s215.584-43.272 294.156-121.844S928 623.118 928 512s-43.272-215.584-121.844-294.156S623.118 96 512 96zm0-96c282.77 0 512 229.23 512 512s-229.23 512-512 512S0 794.77 0 512 229.23 0 512 0zm-64 704h128v128H448zm0-512h128v384H448z"/></symbol>
<symbol id='icon-pencil' viewBox='0 0 1024 1024'><path class="path1" d="M864 0c88.364 0 160 71.634 160 160 0 36.02-11.91 69.258-32 96l-64 64L704 96l64-64c26.742-20.09 59.978-32 96-32zM64 736L0 1024l288-64 592-592-224-224L64 736zm651.578-372.422l-448 448-55.156-55.156 448-448 55.156 55.156z"/></symbol>
<symbol id='icon-pencil2' viewBox='0 0 1024 1024'><path class="path1" d="M384 640l128-64 448-448-64-64-448 448-64 128zm-94.7 227.098c-31.632-66.728-65.666-100.762-132.396-132.394L256 461.912 384 384 768 0H576L192 384 0 1024l640-192 384-384V256L640 640l-77.912 128z"/></symbol>
<symbol id='icon-pin' viewBox='0 0 1024 1024'><path class="path1" d="M544 0l-96 96 96 96-224 256H96l176 176L0 984.616V1024h39.384L400 752l176 176V704l256-224 96 96 96-96L544 0zm-96 544l-64-64 224-224 64 64-224 224z"/></symbol>
<symbol id='icon-quote' viewBox='0 0 1024 1024'><path class="path1" d="M800 640c-123.712 0-224-100.29-224-224 0-123.712 100.288-224 224-224s224 100.288 224 224l1 32c0 247.424-200.576 448-448 448V768c85.474 0 165.834-33.286 226.274-93.726a324.643 324.643 0 0 0 31.83-37.02A225.675 225.675 0 0 1 800 640zm-576 0C100.29 640 0 539.71 0 416c0-123.712 100.29-224 224-224s224 100.288 224 224l1 32c0 247.424-200.576 448-448 448V768c85.474 0 165.834-33.286 226.274-93.726a324.46 324.46 0 0 0 31.832-37.02A225.7 225.7 0 0 1 224 640z"/></symbol>
<symbol id='icon-settings' viewBox='0 0 1024 1024'><path class="path1" d="M933.79 610.25c-53.726-93.054-21.416-212.304 72.152-266.488L905.316 169.47c-28.75 16.854-62.176 26.518-97.846 26.518-107.536 0-194.708-87.746-194.708-195.99H411.504c.266 33.41-8.074 67.282-25.958 98.252-53.724 93.056-173.156 124.702-266.862 70.758L18.06 343.3c28.97 16.472 54.05 40.588 71.886 71.478 53.638 92.908 21.512 211.92-71.708 266.224l100.626 174.292c28.65-16.696 61.916-26.254 97.4-26.254 107.196 0 194.144 87.192 194.7 194.958h201.254c-.086-33.074 8.272-66.57 25.966-97.218 53.636-92.906 172.776-124.594 266.414-71.012l100.626-174.29c-28.78-16.466-53.692-40.498-71.434-71.228zM512 719.332c-114.508 0-207.336-92.824-207.336-207.334 0-114.508 92.826-207.334 207.336-207.334 114.508 0 207.332 92.826 207.332 207.334-.002 114.51-92.824 207.334-207.332 207.334z"/></symbol>
<symbol id='icon-twitter' viewBox='0 0 1024 1024'><path class="path1" d="M1024 226.4c-37.6 16.8-78.2 28-120.6 33 43.4-26 76.6-67.2 92.4-116.2-40.6 24-85.6 41.6-133.4 51C824 153.4 769.4 128 709 128c-116 0-210 94-210 210 0 16.4 1.8 32.4 5.4 47.8-174.6-8.8-329.4-92.4-433-219.6-18 31-28.4 67.2-28.4 105.6 0 72.8 37 137.2 93.4 174.8-34.4-1-66.8-10.6-95.2-26.2v2.6c0 101.8 72.4 186.8 168.6 206-17.6 4.8-36.2 7.4-55.4 7.4-13.6 0-26.6-1.4-39.6-3.8 26.8 83.4 104.4 144.2 196.2 146-72 56.4-162.4 90-261 90-17 0-33.6-1-50.2-3C93 925.4 203.4 960 322 960c386.4 0 597.8-320.2 597.8-597.8 0-9.2-.2-18.2-.6-27.2 41-29.4 76.6-66.4 104.8-108.6z"/></symbol>
<symbol id='icon-up' viewBox='0 0 1024 1024'><path class="path1" d="M877.254 402.746l-320-320c-24.992-24.994-65.514-24.994-90.508 0l-320 320c-24.994 24.994-24.994 65.516 0 90.51 24.994 24.996 65.516 24.996 90.51 0L448 282.51V896c0 35.346 28.654 64 64 64s64-28.654 64-64V282.51l210.746 210.746C799.242 505.752 815.622 512 832 512s32.758-6.248 45.254-18.746c24.994-24.994 24.994-65.514 0-90.508z"/></symbol>
</svg>
